uploads/global/teams_08.svg

<svg height="40" viewBox="0 0 40 40" width="40" xmlns="http://www.w3.org/2000/svg"><g fill="#04de47" transform="translate(3.244969 3.802564)"><path d="m4.97432339 17.0461538c-.92965877-.0106826-1.78990725-.4937208-2.28264594-1.2817287-.30898074-.466284-.49675279-1.0022169-.54632284-1.5592969h5.65793755c-.04961272.5570927-.23743395 1.0930265-.54646496 1.5592969-.49271155.7879658-1.35289575 1.270998-2.28250381 1.2817287z" opacity=".2"/><path d="m29.1353227 17.0461538c-.9296588-.0106826-1.7899073-.4937208-2.2826459-1.2817287-.3089808-.466284-.4967528-1.0022169-.5463229-1.5592969h5.6580797c-.0496127.5570927-.237434 1.0930265-.546465 1.5592969-.4927387.7880079-1.3529871 1.2710461-2.2826459 1.2817287z" opacity=".2"/><path d="m21.3185288 28.4102564c.3924633 0 .7106176-.3179926.7106176-.7102564s-.3181543-.7102564-.7106176-.7102564h-8.5274115c-.3924633 0-.7106176.3179926-.7106176.7102564s.3181543.7102564.7106176.7102564z"/><path d="m25.5822346 29.8307692h-17.05482308c-.39246328 0-.71061763.3179927-.71061763.7102564 0 .3922638.31815435.7102565.71061763.7102565h17.05482308c.3924632 0 .7106176-.3179927.7106176-.7102565 0-.3922637-.3181544-.7102564-.7106176-.7102564z"/><path d="m33.0124525 12.0007764-3.2759473-7.73923794h1.5306704c.3924633 0 .7106176-.31799262.7106176-.71025641 0-.39226378-.3181543-.71025641-.7106176-.71025641h-13.5017349v-2.13076923c0-.39226378-.3181544-.71025641-.7106177-.71025641-.3924632 0-.7106176.31799263-.7106176.71025641v2.13076923h-13.50173489c-.39246328 0-.71061763.31799263-.71061763.71025641 0 .39226379.31815435.71025641.71061763.71025641h1.53067036l-3.27594725 7.73923794c-.63353878 1.3695047-.54826781 2.9635702.22775881 4.25775.77602662 1.2941797 2.14232017 2.1208888 3.64937096 2.2081403 1.50705079-.0872515 2.87334433-.9139606 3.64937095-2.2081403.77602662-1.2941798.86129759-2.8882453.22775882-4.25775l-3.27594726-7.73923794h10.7686995v20.59743594c0 .3922637.3181544.7102564.7106176.7102564.3924633 0 .7106177-.3179927.7106177-.7102564v-20.59743594h10.7686995l-3.2759473 7.73923794c-.6335388 1.3695047-.5482678 2.9635702.2277588 4.25775.7760267 1.2941797 2.1423202 2.1208888 3.649371 2.2081403 1.5070508-.0872515 2.8733443-.9139606 3.6493709-2.2081403.7760267-1.2941798.8612976-2.8882453.2277589-4.25775zm-28.03812911 5.0453774c-.92965877-.0106826-1.78990725-.4937208-2.28264594-1.2817287-.30898074-.466284-.49675279-1.0022169-.54632284-1.5592969h5.65793755c-.04961272.5570927-.23743395 1.0930265-.54646496 1.5592969-.49271155.7879658-1.35289575 1.270998-2.28250381 1.2817287zm2.63397529-4.2615384h-5.26795059c.02615073-.0762816.03410965-.1554041.06580319-.2302651l2.56817211-6.0672944 2.5681721 6.0672944c.03169355.074861.03965246.1539835.06580319.2302651zm21.52702402-6.2975595 2.5681721 6.0672944c.0316935.074861.0396525.1539835.0658032.2302651h-5.2679506c.0261507-.0762816.0341096-.1554041.0658032-.2302651zm0 10.5590979c-.9296588-.0106826-1.7899073-.4937208-2.2826459-1.2817287-.3089808-.466284-.4967528-1.0022169-.5463229-1.5592969h5.6580797c-.0496127.5570927-.237434 1.0930265-.546465 1.5592969-.4927387.7880079-1.3529871 1.2710461-2.2826459 1.2817287z"/></g></svg>

<?xml version="1.0" encoding="UTF-8"?>
<svg width="40px" height="40px" viewBox="0 0 40 40" version="1.1" xmlns="http://www.w3.org/2000/svg" xmlns:xlink="http://www.w3.org/1999/xlink">
    <!-- Generator: Sketch 52.4 (67378) - http://www.bohemiancoding.com/sketch -->
    <title>assets/homepage/teams_08</title>
    <desc>Created with Sketch.</desc>
    <g id="Page-1" stroke="none" stroke-width="1" fill="none" fill-rule="evenodd">
        <g id="Wunder-Careers-03-Teams" transform="translate(-40.000000, -3538.000000)" fill="#04DE47" fill-rule="nonzero">
            <g id="Enginiering-Copy-5" transform="translate(10.000000, 3292.000000)">
                <g id="Group-19" transform="translate(30.000000, 246.000000)">
                    <g id="finance-policy" transform="translate(3.244969, 3.802564)">
                        <path d="M4.97432339,17.0461538 C4.04466462,17.0354712 3.18441614,16.552433 2.69167745,15.7644251 C2.38269671,15.2981411 2.19492466,14.7622082 2.14535461,14.2051282 L7.80329216,14.2051282 C7.75367944,14.7622209 7.56585821,15.2981547 7.2568272,15.7644251 C6.76411565,16.5523909 5.90393145,17.0354231 4.97432339,17.0461538 Z" id="Path" opacity="0.200000003"></path>
                        <path d="M29.1353227,17.0461538 C28.2056639,17.0354712 27.3454154,16.552433 26.8526768,15.7644251 C26.543696,15.2981411 26.355924,14.7622082 26.3063539,14.2051282 L31.9644336,14.2051282 C31.9148209,14.7622209 31.7269996,15.2981547 31.4179686,15.7644251 C30.9252299,16.552433 30.0649815,17.0354712 29.1353227,17.0461538 Z" id="Path" opacity="0.200000003"></path>
                        <path d="M21.3185288,28.4102564 C21.7109921,28.4102564 22.0291464,28.0922638 22.0291464,27.7 C22.0291464,27.3077362 21.7109921,26.9897436 21.3185288,26.9897436 L12.7911173,26.9897436 C12.398654,26.9897436 12.0804997,27.3077362 12.0804997,27.7 C12.0804997,28.0922638 12.398654,28.4102564 12.7911173,28.4102564 L21.3185288,28.4102564 Z" id="Path"></path>
                        <path d="M25.5822346,29.8307692 L8.52741152,29.8307692 C8.13494824,29.8307692 7.81679389,30.1487619 7.81679389,30.5410256 C7.81679389,30.9332894 8.13494824,31.2512821 8.52741152,31.2512821 L25.5822346,31.2512821 C25.9746978,31.2512821 26.2928522,30.9332894 26.2928522,30.5410256 C26.2928522,30.1487619 25.9746978,29.8307692 25.5822346,29.8307692 Z" id="Path"></path>
                        <path d="M33.0124525,12.0007764 L29.7365052,4.26153846 L31.2671756,4.26153846 C31.6596389,4.26153846 31.9777932,3.94354584 31.9777932,3.55128205 C31.9777932,3.15901827 31.6596389,2.84102564 31.2671756,2.84102564 L17.7654407,2.84102564 L17.7654407,0.71025641 C17.7654407,0.317992626 17.4472863,0 17.054823,0 C16.6623598,0 16.3442054,0.317992626 16.3442054,0.71025641 L16.3442054,2.84102564 L2.84247051,2.84102564 C2.45000723,2.84102564 2.13185288,3.15901827 2.13185288,3.55128205 C2.13185288,3.94354584 2.45000723,4.26153846 2.84247051,4.26153846 L4.37314087,4.26153846 L1.09719362,12.0007764 C0.463654844,13.3702811 0.548925813,14.9643466 1.32495243,16.2585264 C2.10097905,17.5527061 3.4672726,18.3794152 4.97432339,18.4666667 C6.48137418,18.3794152 7.84766772,17.5527061 8.62369434,16.2585264 C9.39972096,14.9643466 9.48499193,13.3702811 8.85145316,12.0007764 L5.5755059,4.26153846 L16.3442054,4.26153846 L16.3442054,24.8589744 C16.3442054,25.2512381 16.6623598,25.5692308 17.054823,25.5692308 C17.4472863,25.5692308 17.7654407,25.2512381 17.7654407,24.8589744 L17.7654407,4.26153846 L28.5341402,4.26153846 L25.2581929,12.0007764 C24.6246541,13.3702811 24.7099251,14.9643466 25.4859517,16.2585264 C26.2619784,17.5527061 27.6282719,18.3794152 29.1353227,18.4666667 C30.6423735,18.3794152 32.008667,17.5527061 32.7846936,16.2585264 C33.5607203,14.9643466 33.6459912,13.3702811 33.0124525,12.0007764 Z M4.97432339,17.0461538 C4.04466462,17.0354712 3.18441614,16.552433 2.69167745,15.7644251 C2.38269671,15.2981411 2.19492466,14.7622082 2.14535461,14.2051282 L7.80329216,14.2051282 C7.75367944,14.7622209 7.56585821,15.2981547 7.2568272,15.7644251 C6.76411565,16.5523909 5.90393145,17.0354231 4.97432339,17.0461538 Z M7.60829868,12.7846154 L2.34034809,12.7846154 C2.36649882,12.7083338 2.37445774,12.6292113 2.40615128,12.5543503 L4.97432339,6.4870559 L7.54249549,12.5543503 C7.57418904,12.6292113 7.58214795,12.7083338 7.60829868,12.7846154 Z M29.1353227,6.4870559 L31.7034948,12.5543503 C31.7351883,12.6292113 31.7431473,12.7083338 31.769298,12.7846154 L26.5013474,12.7846154 C26.5274981,12.7083338 26.535457,12.6292113 26.5671506,12.5543503 L29.1353227,6.4870559 Z M29.1353227,17.0461538 C28.2056639,17.0354712 27.3454154,16.552433 26.8526768,15.7644251 C26.543696,15.2981411 26.355924,14.7622082 26.3063539,14.2051282 L31.9644336,14.2051282 C31.9148209,14.7622209 31.7269996,15.2981547 31.4179686,15.7644251 C30.9252299,16.552433 30.0649815,17.0354712 29.1353227,17.0461538 Z" id="Shape"></path>
                    </g>
                </g>
            </g>
        </g>
    </g>
</svg>
